src/assets/images/unmuted.svg

<?xml version="1.0" encoding="UTF-8"?>
<svg width="30px" height="30px" viewBox="0 0 30 30" version="1.1" xmlns="http://www.w3.org/2000/svg" xmlns:xlink="http://www.w3.org/1999/xlink">
    <g id="unmuted" stroke="none" stroke-width="1" fill="none" fill-rule="evenodd">
        <path d="M2,9.64705882 L7.85861215,9.64705882 C8.10858723,9.64705882 8.34949779,9.55343558 8.53387394,9.38463696 L14.9247382,3.53372264 C15.3320914,3.16078585 15.9646413,3.18868583 16.3375781,3.59603898 C16.5063768,3.78041514 16.6,4.0213257 16.6,4.27130078 L16.6,12.6804199 L16.6,25.7238185 C16.6,26.2761033 16.1522847,26.7238185 15.6,26.7238185 C15.349479,26.7238185 15.1080831,26.6297868 14.9235721,26.4603274 L8.56061626,20.6164323 C8.3761053,20.4469729 8.13470941,20.3529412 7.88418839,20.3529412 L2,20.3529412 C1.44771525,20.3529412 1,19.9052259 1,19.3529412 L1,10.6470588 C1,10.0947741 1.44771525,9.64705882 2,9.64705882 Z" id="Rectangle" fill="#FFFFFF"></path>
        <path d="M18.7857143,13 C19.452381,13.8224691 19.7857143,14.652181 19.7857143,15.4891357 C19.7857143,16.3260905 19.452381,17.1630452 18.7857143,18" id="Line" stroke="#FFFFFF" stroke-width="2" stroke-linecap="round" stroke-linejoin="round"></path>
        <path d="M21.7857143,10 C23.1190476,11.809432 23.7857143,13.6347982 23.7857143,15.4760986 C23.7857143,17.3173991 23.1190476,19.1586995 21.7857143,21" id="Line" stroke="#FFFFFF" stroke-width="2" stroke-linecap="round" stroke-linejoin="round"></path>
        <path d="M24.7857143,7 C26.7857143,9.79639486 27.7857143,12.6174154 27.7857143,15.4630615 C27.7857143,18.3087077 26.7857143,21.1543538 24.7857143,24" id="Line" stroke="#FFFFFF" stroke-width="2" stroke-linecap="round" stroke-linejoin="round"></path>
    </g>
</svg>

<svg width="30" height="30" xmlns="http://www.w3.org/2000/svg"><g fill="none" fill-rule="evenodd"><path d="M2 9.647h5.859a1 1 0 0 0 .675-.262l6.39-5.851a1 1 0 0 1 1.676.737v21.453a1 1 0 0 1-1.676.736L8.56 20.616a1 1 0 0 0-.677-.263H2a1 1 0 0 1-1-1v-8.706a1 1 0 0 1 1-1z" fill="#FFF"/><path d="M18.786 13c.666.822 1 1.652 1 2.49 0 .836-.334 1.673-1 2.51M21.786 10c1.333 1.81 2 3.635 2 5.476 0 1.841-.667 3.683-2 5.524M24.786 7c2 2.796 3 5.617 3 8.463 0 2.846-1 5.691-3 8.537" stroke="#FFF" stroke-width="2" stroke-linecap="round" stroke-linejoin="round"/></g></svg>
